ix/send-sqaure-2_bulk.svg

<svg viewBox="0 0 24 24" fill="none" xmlns="http://www.w3.org/2000/svg" height="1em" width="1em">
  <path opacity="0.4" d="M16.1898 2H7.81978C4.17978 2 2.00977 4.17 2.00977 7.81V16.18C2.00977 19.82 4.17978 21.99 7.81978 21.99H16.1898C19.8298 21.99 21.9998 19.82 21.9998 16.18V7.81C21.9998 4.17 19.8298 2 16.1898 2Z" fill="#292D32"/>
  <path d="M9.17156 14.0899C9.36156 14.0899 9.55155 14.0199 9.70155 13.8699L14.0816 9.48992V11.9199C14.0816 12.3299 14.4216 12.6699 14.8316 12.6699C15.2416 12.6699 15.5816 12.3299 15.5816 11.9199V7.67992C15.5816 7.57992 15.5616 7.48992 15.5216 7.38992C15.4416 7.20992 15.3016 7.05993 15.1116 6.97993C15.0216 6.93993 14.9216 6.91992 14.8216 6.91992H10.5816C10.1716 6.91992 9.83156 7.25992 9.83156 7.66992C9.83156 8.07992 10.1716 8.41992 10.5816 8.41992H13.0116L8.63156 12.7999C8.34156 13.0899 8.34156 13.5699 8.63156 13.8599C8.79156 14.0199 8.98156 14.0899 9.17156 14.0899Z" fill="#292D32"/>
  <path d="M18.7107 16.28C18.5807 15.89 18.1607 15.68 17.7607 15.81C14.0407 17.05 9.95066 17.05 6.23066 15.81C5.84066 15.68 5.41067 15.89 5.28067 16.28C5.15067 16.67 5.36067 17.1 5.75067 17.23C7.76067 17.9 9.87067 18.24 11.9907 18.24C14.1107 18.24 16.2207 17.9 18.2307 17.23C18.6307 17.09 18.8407 16.67 18.7107 16.28Z" fill="#292D32"/>
</svg>

<svg viewBox="0 0 24 24" fill="none" xmlns="http://www.w3.org/2000/svg" height="1em" width="1em">
  <path opacity=".4" d="M16.19 2H7.82C4.18 2 2.01 4.17 2.01 7.81v8.37c0 3.64 2.17 5.81 5.81 5.81h8.37c3.64 0 5.81-2.17 5.81-5.81V7.81C22 4.17 19.83 2 16.19 2Z" fill="#292D32"/>
  <path d="M9.172 14.09c.19 0 .38-.07.53-.22l4.38-4.38v2.43c0 .41.34.75.75.75s.75-.34.75-.75V7.68c0-.1-.02-.19-.06-.29a.782.782 0 0 0-.41-.41.717.717 0 0 0-.29-.06h-4.24c-.41 0-.75.34-.75.75s.34.75.75.75h2.43l-4.38 4.38c-.29.29-.29.77 0 1.06.16.16.35.23.54.23Zm9.538 2.19a.749.749 0 0 0-.95-.47 18.334 18.334 0 0 1-11.53 0 .753.753 0 0 0-.95.47c-.13.39.08.82.47.95 2.01.67 4.12 1.01 6.24 1.01s4.23-.34 6.24-1.01c.4-.14.61-.56.48-.95Z" fill="#292D32"/>
</svg>
